static/assets/img/icons/theme/shopping/sort-2.svg

<svg height="24" viewBox="0 0 24 24" width="24" xmlns="http://www.w3.org/2000/svg"><g fill="none" fill-rule="evenodd"><path d="m0 0h24v24h-24z" opacity="0"/><path d="m5.5 6c.82842712 0 1.5.67157288 1.5 1.5v11c0 .8284271-.67157288 1.5-1.5 1.5s-1.5-.6715729-1.5-1.5v-11c0-.82842712.67157288-1.5 1.5-1.5zm6 5c.8284271 0 1.5.6715729 1.5 1.5v6c0 .8284271-.6715729 1.5-1.5 1.5s-1.5-.6715729-1.5-1.5v-6c0-.8284271.6715729-1.5 1.5-1.5zm6 4c.8284271 0 1.5.6715729 1.5 1.5v2c0 .8284271-.6715729 1.5-1.5 1.5s-1.5-.6715729-1.5-1.5v-2c0-.8284271.6715729-1.5 1.5-1.5z" fill="#000"/></g></svg>

<svg width="24px" height="24px" viewBox="0 0 24 24" version="1.1" xmlns="http://www.w3.org/2000/svg" xmlns:xlink="http://www.w3.org/1999/xlink">
    <title>Icon For Sort#2</title>
    <g stroke="none" stroke-width="1" fill="none" fill-rule="evenodd">
        <rect opacity="0" x="0" y="0" width="24" height="24"></rect>
        <path d="M5.5,6 C6.32842712,6 7,6.67157288 7,7.5 L7,18.5 C7,19.3284271 6.32842712,20 5.5,20 C4.67157288,20 4,19.3284271 4,18.5 L4,7.5 C4,6.67157288 4.67157288,6 5.5,6 Z M11.5,11 C12.3284271,11 13,11.6715729 13,12.5 L13,18.5 C13,19.3284271 12.3284271,20 11.5,20 C10.6715729,20 10,19.3284271 10,18.5 L10,12.5 C10,11.6715729 10.6715729,11 11.5,11 Z M17.5,15 C18.3284271,15 19,15.6715729 19,16.5 L19,18.5 C19,19.3284271 18.3284271,20 17.5,20 C16.6715729,20 16,19.3284271 16,18.5 L16,16.5 C16,15.6715729 16.6715729,15 17.5,15 Z" fill="#000000"></path>
    </g>
</svg>
